X:1
T:Title
%%score { 1 | ( 2 3 ) }
L:1/8
M:4/4
K:G
V:1 treble nm="Grand Piano"
V:2 bass 
V:3 bass 
V:1
 z4 z2[Q:1/4=110] D2 | E2 G2 c2 [Ec]2 |[M:2/4] [DB]3 [CA] | [B,G]3 D | %4
[M:4/4] E2 [DG]2 [^CA]2 [CB]2 |[M:3/4] A6 |[M:1/4] D2 |[M:4/4] E2 G2 c2 [Ec]2 |[M:2/4] [DB]3 [CA] | %9
 [G,DG]2 [G,D]2 |[M:4/4] [G,CE][DF] [G,DG]2 [A,EG]2 .[A,DF]2 | [G,B,G]6 [B,DG]2 | %12
 [FA]3 [GB] [Ac]2 [Ac]2 | B3 A G2 B2 | A3 G F2 [^CE]2 | D6 D2 | E2 G2 c2 [Ec]2 | %17
 [DB]3 [CA] [G,B,G]2 [G,D]2 | [G,CE][DF] [G,DG]2 [A,EG]2 .[A,DF]2 |[M:3/4] [G,B,G]6 |] %20
V:2
 z4 z2 [G,B,]2 | [G,C]2 [G,B,]2 [G,E]2 [C,G,]2 |[M:2/4] [D,G,]3 [D,F,] | [G,,G,]3 [B,,G,] | %4
[M:4/4] [C,G,C]2 [B,,G,]2 [A,,G,]2 [A,,G,]2 |[M:3/4] [D,F,D]6 |[M:1/4] [G,B,]2 | %7
[M:4/4] [G,C]2 [G,B,]2 [G,E]2 [C,G,]2 |[M:2/4] [D,G,]3 [D,F,] | G,,2 B,,2 | %10
[M:4/4] z A, B,,2 C,2 z C | G,,6 G,2 | [D,D]3 [D,D] [D,D]2 [D,D]2 | %13
 [G,DG]3 [G,CD][K:bass] [G,B,D]2 [G,D]2 | [F,A,D]3 [G,B,E] [A,D]2 [A,,G,]2 | [D,F,]6 [G,B,]2 | %16
 [G,C]2 [G,B,]2 [G,E]2 [C,G,]2 | [D,G,]3 [D,F,] G,,2 B,,2 | z A, B,,2 C,2 z C |[M:3/4] G,,6 |] %20
V:3
 x8 | x8 |[M:2/4] x4 | x4 |[M:4/4] x8 |[M:3/4] x6 |[M:1/4] x2 |[M:4/4] x8 |[M:2/4] x4 | x4 | %10
[M:4/4] C,2 z2 z2 D,2 | x8 | x8 | x4[K:bass] x4 | x8 | x8 | x8 | x8 | C,2 z2 z2 D,2 |[M:3/4] x6 |] %20

